X: 15619
T: Goatherd And The Shepherd, The
R: jig
M: 6/8
K: Amixolydian
|:cAA cAA|BGG BdB|cAA cAA|cAA efe|
cAA cAA|BGG BdB|cec dcB|~A3 ~a3:|
|:cAA eAe|BGG BdB|cAA eAe|cAA efe|
cAA eAe|BGG BdB||cec dcB|1 ~A3 ~a3:|2 ~A3 ~a2||
|:e|fed c2A|cec ~d2e|fed c2A|cee efg|
fed c2A|cee ~g3|agf ~g2e|fdd ~d2:|
|:e|fdd add|ecc ~g2e|fdd add|fdd ~a2g|
fdd add|ecc ~g2e|agf ~g2e|fdd ~d2:|

